assets/images/logo.svg

<svg width="1007" height="216" viewBox="0 0 1007 216" fill="none" xmlns="http://www.w3.org/2000/svg">
<path d="M50.8263 176.88C40.5863 176.88 31.7063 174.56 24.1863 169.92C16.6663 165.28 10.8263 158.08 6.66628 148.32C2.66628 138.56 0.666275 126 0.666275 110.64C0.666275 95.44 2.74628 83.04 6.90628 73.44C11.0663 63.68 16.8263 56.48 24.1863 51.84C31.5463 47.2 39.8663 44.88 49.1463 44.88C54.9063 44.88 60.1863 45.52 64.9863 46.8C69.7863 48.08 74.0263 50.08 77.7063 52.8C81.3863 55.36 84.5063 58.56 87.0663 62.4H88.5063V0.47998H117.786V174H93.5463L91.1463 157.2H89.4663C85.4663 163.76 80.0263 168.72 73.1463 172.08C66.4263 175.28 58.9863 176.88 50.8263 176.88ZM59.9463 151.68C66.6663 151.68 72.1063 150.16 76.2663 147.12C80.4263 144.08 83.4663 139.68 85.3863 133.92C87.4663 128.16 88.5063 121.12 88.5063 112.8V109.68C88.5063 103.44 87.9463 97.84 86.8263 92.88C85.7063 87.92 83.9463 83.76 81.5463 80.4C79.3063 77.04 76.3463 74.48 72.6663 72.72C69.1463 70.96 64.9063 70.08 59.9463 70.08C52.7463 70.08 46.9863 71.52 42.6663 74.4C38.5063 77.12 35.4663 81.44 33.5463 87.36C31.7863 93.12 30.9063 100.48 30.9063 109.44V112.8C30.9063 121.6 31.7863 128.88 33.5463 134.64C35.4663 140.4 38.5063 144.72 42.6663 147.6C46.9863 150.32 52.7463 151.68 59.9463 151.68Z" fill="url(#paint0_linear_2_49)"/>
<path d="M191.178 176.88C177.738 176.88 166.538 174.56 157.578 169.92C148.618 165.12 141.898 157.84 137.418 148.08C132.938 138.32 130.698 125.92 130.698 110.88C130.698 95.68 132.938 83.28 137.418 73.68C141.898 63.92 148.618 56.72 157.578 52.08C166.538 47.28 177.738 44.88 191.178 44.88C203.338 44.88 213.498 47.2 221.658 51.84C229.978 56.32 236.218 63.28 240.378 72.72C244.538 82.16 246.618 94.4 246.618 109.44V118.08H160.698C161.018 125.92 162.218 132.56 164.298 138C166.378 143.28 169.578 147.28 173.898 150C178.378 152.56 184.218 153.84 191.418 153.84C195.098 153.84 198.538 153.36 201.738 152.4C204.938 151.44 207.738 150 210.138 148.08C212.538 146 214.378 143.44 215.658 140.4C217.098 137.36 217.818 133.84 217.818 129.84H246.618C246.618 137.84 245.178 144.8 242.298 150.72C239.578 156.64 235.658 161.52 230.538 165.36C225.578 169.2 219.738 172.08 213.018 174C206.298 175.92 199.018 176.88 191.178 176.88ZM161.178 97.44H216.138C216.138 92.16 215.498 87.68 214.218 84C213.098 80.32 211.418 77.28 209.178 74.88C207.098 72.48 204.538 70.8 201.498 69.84C198.458 68.72 195.018 68.16 191.178 68.16C184.938 68.16 179.658 69.2 175.338 71.28C171.178 73.36 167.978 76.56 165.738 80.88C163.498 85.2 161.978 90.72 161.178 97.44Z" fill="url(#paint1_linear_2_49)"/>
<path d="M259.469 215.52V47.76H283.709L286.109 64.56H287.789C291.949 58 297.389 53.12 304.109 49.92C310.829 46.56 318.269 44.88 326.429 44.88C336.829 44.88 345.709 47.2 353.069 51.84C360.589 56.48 366.349 63.68 370.349 73.44C374.509 83.2 376.589 95.76 376.589 111.12C376.589 126.16 374.509 138.56 370.349 148.32C366.189 158.08 360.429 165.28 353.069 169.92C345.869 174.56 337.549 176.88 328.109 176.88C322.349 176.88 317.069 176.24 312.269 174.96C307.469 173.68 303.229 171.76 299.549 169.2C295.869 166.48 292.749 163.2 290.189 159.36H288.749V215.52H259.469ZM317.309 151.68C324.509 151.68 330.189 150.32 334.349 147.6C338.669 144.72 341.709 140.4 343.469 134.64C345.389 128.88 346.349 121.6 346.349 112.8V109.44C346.349 100.48 345.389 93.12 343.469 87.36C341.709 81.44 338.669 77.12 334.349 74.4C330.189 71.52 324.509 70.08 317.309 70.08C310.749 70.08 305.309 71.6 300.989 74.64C296.829 77.68 293.709 82.16 291.629 88.08C289.709 93.84 288.749 100.96 288.749 109.44V112.32C288.749 118.56 289.309 124.16 290.429 129.12C291.549 133.92 293.229 138 295.469 141.36C297.869 144.72 300.829 147.28 304.349 149.04C308.029 150.8 312.349 151.68 317.309 151.68Z" fill="url(#paint2_linear_2_49)"/>
<path d="M389.5 174V47.76H413.98L416.38 67.68H418.06C419.66 63.68 421.58 60 423.82 56.64C426.22 53.12 429.26 50.32 432.94 48.24C436.62 46 441.1 44.88 446.38 44.88C448.94 44.88 451.26 45.12 453.34 45.6C455.58 46.08 457.26 46.56 458.38 47.04V74.64H449.5C444.54 74.64 440.14 75.36 436.3 76.8C432.46 78.08 429.18 80.16 426.46 83.04C423.9 85.92 421.98 89.52 420.7 93.84C419.42 98.16 418.78 103.2 418.78 108.96V174H389.5Z" fill="url(#paint3_linear_2_49)"/>
<path d="M516.349 176.88C502.909 176.88 491.709 174.56 482.749 169.92C473.789 165.12 467.069 157.84 462.589 148.08C458.109 138.32 455.869 125.92 455.869 110.88C455.869 95.68 458.109 83.28 462.589 73.68C467.069 63.92 473.789 56.72 482.749 52.08C491.709 47.28 502.909 44.88 516.349 44.88C528.509 44.88 538.669 47.2 546.829 51.84C555.149 56.32 561.389 63.28 565.549 72.72C569.709 82.16 571.789 94.4 571.789 109.44V118.08H485.869C486.189 125.92 487.389 132.56 489.469 138C491.549 143.28 494.749 147.28 499.069 150C503.549 152.56 509.389 153.84 516.589 153.84C520.269 153.84 523.709 153.36 526.909 152.4C530.109 151.44 532.909 150 535.309 148.08C537.709 146 539.549 143.44 540.829 140.4C542.269 137.36 542.989 133.84 542.989 129.84H571.789C571.789 137.84 570.349 144.8 567.469 150.72C564.749 156.64 560.829 161.52 555.709 165.36C550.749 169.2 544.909 172.08 538.189 174C531.469 175.92 524.189 176.88 516.349 176.88ZM486.349 97.44H541.309C541.309 92.16 540.669 87.68 539.389 84C538.269 80.32 536.589 77.28 534.349 74.88C532.269 72.48 529.709 70.8 526.669 69.84C523.629 68.72 520.189 68.16 516.349 68.16C510.109 68.16 504.829 69.2 500.509 71.28C496.349 73.36 493.149 76.56 490.909 80.88C488.669 85.2 487.149 90.72 486.349 97.44Z" fill="url(#paint4_linear_2_49)"/>
<path d="M584.641 174V47.76H609.121L611.521 64.56H613.201C615.921 60.72 619.041 57.36 622.561 54.48C626.081 51.44 630.081 49.12 634.561 47.52C639.201 45.76 644.241 44.88 649.681 44.88C657.041 44.88 663.601 46.4 669.361 49.44C675.121 52.48 679.601 57.52 682.801 64.56H684.481C687.201 60.72 690.401 57.36 694.081 54.48C697.761 51.44 702.001 49.12 706.801 47.52C711.601 45.76 716.801 44.88 722.401 44.88C729.921 44.88 736.561 46.24 742.321 48.96C748.081 51.68 752.641 56.16 756.001 62.4C759.361 68.64 761.041 76.96 761.041 87.36V174H731.761V93.36C731.761 89.04 731.281 85.44 730.321 82.56C729.361 79.52 728.001 77.2 726.241 75.6C724.641 73.84 722.561 72.56 720.001 71.76C717.601 70.96 714.961 70.56 712.081 70.56C707.441 70.56 703.281 71.84 699.601 74.4C695.921 76.96 692.961 80.48 690.721 84.96C688.641 89.44 687.601 94.64 687.601 100.56V174H658.321V93.36C658.321 89.04 657.841 85.44 656.881 82.56C655.921 79.52 654.561 77.2 652.801 75.6C651.201 73.84 649.121 72.56 646.561 71.76C644.161 70.96 641.521 70.56 638.641 70.56C634.001 70.56 629.761 71.84 625.921 74.4C622.241 76.96 619.281 80.48 617.041 84.96C614.961 89.44 613.921 94.64 613.921 100.56V174H584.641Z" fill="url(#paint5_linear_2_49)"/>
<path d="M784.399 174V143.28H814.879V174H784.399Z" fill="#2C2E3C"/>
<path d="M839.312 28.32V0.47998H868.593V28.32H839.312ZM839.312 174V47.76H868.593V174H839.312Z" fill="#2C2E3C"/>
<path d="M943.941 176.88C930.181 176.88 918.661 174.56 909.381 169.92C900.101 165.12 893.141 157.84 888.501 148.08C883.861 138.32 881.541 125.92 881.541 110.88C881.541 95.68 883.861 83.28 888.501 73.68C893.141 63.92 900.101 56.72 909.381 52.08C918.661 47.28 930.181 44.88 943.941 44.88C957.861 44.88 969.381 47.28 978.501 52.08C987.781 56.72 994.741 63.92 999.381 73.68C1004.02 83.28 1006.34 95.68 1006.34 110.88C1006.34 125.92 1004.02 138.32 999.381 148.08C994.741 157.84 987.781 165.12 978.501 169.92C969.381 174.56 957.861 176.88 943.941 176.88ZM943.941 152.88C951.621 152.88 957.781 151.44 962.421 148.56C967.221 145.52 970.661 141.04 972.741 135.12C974.981 129.04 976.101 121.52 976.101 112.56V109.2C976.101 100.24 974.981 92.8 972.741 86.88C970.661 80.8 967.221 76.32 962.421 73.44C957.781 70.4 951.621 68.88 943.941 68.88C936.261 68.88 930.021 70.4 925.221 73.44C920.581 76.32 917.141 80.8 914.901 86.88C912.821 92.8 911.781 100.24 911.781 109.2V112.56C911.781 121.52 912.821 129.04 914.901 135.12C917.141 141.04 920.581 145.52 925.221 148.56C930.021 151.44 936.261 152.88 943.941 152.88Z" fill="#2C2E3C"/>
<defs>
<linearGradient id="paint0_linear_2_49" x1="104.324" y1="99.6805" x2="504.023" y2="225.707" gradientUnits="userSpaceOnUse">
<stop stop-color="#FF5761"/>
<stop offset="1" stop-color="#4765FF"/>
</linearGradient>
<linearGradient id="paint1_linear_2_49" x1="104.324" y1="99.6805" x2="504.023" y2="225.707" gradientUnits="userSpaceOnUse">
<stop stop-color="#FF5761"/>
<stop offset="1" stop-color="#4765FF"/>
</linearGradient>
<linearGradient id="paint2_linear_2_49" x1="104.324" y1="99.6805" x2="504.023" y2="225.707" gradientUnits="userSpaceOnUse">
<stop stop-color="#FF5761"/>
<stop offset="1" stop-color="#4765FF"/>
</linearGradient>
<linearGradient id="paint3_linear_2_49" x1="104.324" y1="99.6805" x2="504.023" y2="225.707" gradientUnits="userSpaceOnUse">
<stop stop-color="#FF5761"/>
<stop offset="1" stop-color="#4765FF"/>
</linearGradient>
<linearGradient id="paint4_linear_2_49" x1="104.324" y1="99.6805" x2="504.023" y2="225.707" gradientUnits="userSpaceOnUse">
<stop stop-color="#FF5761"/>
<stop offset="1" stop-color="#4765FF"/>
</linearGradient>
<linearGradient id="paint5_linear_2_49" x1="104.324" y1="99.6805" x2="504.023" y2="225.707" gradientUnits="userSpaceOnUse">
<stop stop-color="#FF5761"/>
<stop offset="1" stop-color="#4765FF"/>
</linearGradient>
</defs>
</svg>

<svg xmlns="http://www.w3.org/2000/svg" width="1007" height="216" fill="none"><path fill="url(#a)" d="M50.826 176.88c-10.24 0-19.12-2.32-26.64-6.96-7.52-4.64-13.36-11.84-17.52-21.6-4-9.76-6-22.32-6-37.68 0-15.2 2.08-27.6 6.24-37.2 4.16-9.76 9.92-16.96 17.28-21.6 7.36-4.64 15.68-6.96 24.96-6.96 5.76 0 11.04.64 15.84 1.92 4.8 1.28 9.04 3.28 12.72 6 3.68 2.56 6.8 5.76 9.36 9.6h1.44V.48h29.28V174h-24.24l-2.4-16.8h-1.68c-4 6.56-9.44 11.52-16.32 14.88-6.72 3.2-14.16 4.8-22.32 4.8Zm9.12-25.2c6.72 0 12.16-1.52 16.32-4.56 4.16-3.04 7.2-7.44 9.12-13.2 2.08-5.76 3.12-12.8 3.12-21.12v-3.12c0-6.24-.56-11.84-1.68-16.8-1.12-4.96-2.88-9.12-5.28-12.48-2.24-3.36-5.2-5.92-8.88-7.68-3.52-1.76-7.76-2.64-12.72-2.64-7.2 0-12.96 1.44-17.28 4.32-4.16 2.72-7.2 7.04-9.12 12.96-1.76 5.76-2.64 13.12-2.64 22.08v3.36c0 8.8.88 16.08 2.64 21.84 1.92 5.76 4.96 10.08 9.12 12.96 4.32 2.72 10.08 4.08 17.28 4.08Z"/><path fill="url(#b)" d="M191.178 176.88c-13.44 0-24.64-2.32-33.6-6.96-8.96-4.8-15.68-12.08-20.16-21.84s-6.72-22.16-6.72-37.2c0-15.2 2.24-27.6 6.72-37.2 4.48-9.76 11.2-16.96 20.16-21.6 8.96-4.8 20.16-7.2 33.6-7.2 12.16 0 22.32 2.32 30.48 6.96 8.32 4.48 14.56 11.44 18.72 20.88 4.16 9.44 6.24 21.68 6.24 36.72v8.64h-85.92c.32 7.84 1.52 14.48 3.6 19.92 2.08 5.28 5.28 9.28 9.6 12 4.48 2.56 10.32 3.84 17.52 3.84 3.68 0 7.12-.48 10.32-1.44s6-2.4 8.4-4.32c2.4-2.08 4.24-4.64 5.52-7.68 1.44-3.04 2.16-6.56 2.16-10.56h28.8c0 8-1.44 14.96-4.32 20.88-2.72 5.92-6.64 10.8-11.76 14.64-4.96 3.84-10.8 6.72-17.52 8.64-6.72 1.92-14 2.88-21.84 2.88Zm-30-79.44h54.96c0-5.28-.64-9.76-1.92-13.44-1.12-3.68-2.8-6.72-5.04-9.12-2.08-2.4-4.64-4.08-7.68-5.04-3.04-1.12-6.48-1.68-10.32-1.68-6.24 0-11.52 1.04-15.84 3.12-4.16 2.08-7.36 5.28-9.6 9.6-2.24 4.32-3.76 9.84-4.56 16.56Z"/><path fill="url(#c)" d="M259.469 215.52V47.76h24.24l2.4 16.8h1.68c4.16-6.56 9.6-11.44 16.32-14.64 6.72-3.36 14.16-5.04 22.32-5.04 10.4 0 19.28 2.32 26.64 6.96 7.52 4.64 13.28 11.84 17.28 21.6 4.16 9.76 6.24 22.32 6.24 37.68 0 15.04-2.08 27.44-6.24 37.2-4.16 9.76-9.92 16.96-17.28 21.6-7.2 4.64-15.52 6.96-24.96 6.96-5.76 0-11.04-.64-15.84-1.92-4.8-1.28-9.04-3.2-12.72-5.76-3.68-2.72-6.8-6-9.36-9.84h-1.44v56.16h-29.28Zm57.84-63.84c7.2 0 12.88-1.36 17.04-4.08 4.32-2.88 7.36-7.2 9.12-12.96 1.92-5.76 2.88-13.04 2.88-21.84v-3.36c0-8.96-.96-16.32-2.88-22.08-1.76-5.92-4.8-10.24-9.12-12.96-4.16-2.88-9.84-4.32-17.04-4.32-6.56 0-12 1.52-16.32 4.56-4.16 3.04-7.28 7.52-9.36 13.44-1.92 5.76-2.88 12.88-2.88 21.36v2.88c0 6.24.56 11.84 1.68 16.8 1.12 4.8 2.8 8.88 5.04 12.24 2.4 3.36 5.36 5.92 8.88 7.68 3.68 1.76 8 2.64 12.96 2.64Z"/><path fill="url(#d)" d="M389.5 174V47.76h24.48l2.4 19.92h1.68c1.6-4 3.52-7.68 5.76-11.04 2.4-3.52 5.44-6.32 9.12-8.4 3.68-2.24 8.16-3.36 13.44-3.36 2.56 0 4.88.24 6.96.72 2.24.48 3.92.96 5.04 1.44v27.6h-8.88c-4.96 0-9.36.72-13.2 2.16-3.84 1.28-7.12 3.36-9.84 6.24-2.56 2.88-4.48 6.48-5.76 10.8-1.28 4.32-1.92 9.36-1.92 15.12V174H389.5Z"/><path fill="url(#e)" d="M516.349 176.88c-13.44 0-24.64-2.32-33.6-6.96-8.96-4.8-15.68-12.08-20.16-21.84s-6.72-22.16-6.72-37.2c0-15.2 2.24-27.6 6.72-37.2 4.48-9.76 11.2-16.96 20.16-21.6 8.96-4.8 20.16-7.2 33.6-7.2 12.16 0 22.32 2.32 30.48 6.96 8.32 4.48 14.56 11.44 18.72 20.88 4.16 9.44 6.24 21.68 6.24 36.72v8.64h-85.92c.32 7.84 1.52 14.48 3.6 19.92 2.08 5.28 5.28 9.28 9.6 12 4.48 2.56 10.32 3.84 17.52 3.84 3.68 0 7.12-.48 10.32-1.44s6-2.4 8.4-4.32c2.4-2.08 4.24-4.64 5.52-7.68 1.44-3.04 2.16-6.56 2.16-10.56h28.8c0 8-1.44 14.96-4.32 20.88-2.72 5.92-6.64 10.8-11.76 14.64-4.96 3.84-10.8 6.72-17.52 8.64-6.72 1.92-14 2.88-21.84 2.88Zm-30-79.44h54.96c0-5.28-.64-9.76-1.92-13.44-1.12-3.68-2.8-6.72-5.04-9.12-2.08-2.4-4.64-4.08-7.68-5.04-3.04-1.12-6.48-1.68-10.32-1.68-6.24 0-11.52 1.04-15.84 3.12-4.16 2.08-7.36 5.28-9.6 9.6-2.24 4.32-3.76 9.84-4.56 16.56Z"/><path fill="url(#f)" d="M584.641 174V47.76h24.48l2.4 16.8h1.68c2.72-3.84 5.84-7.2 9.36-10.08 3.52-3.04 7.52-5.36 12-6.96 4.64-1.76 9.68-2.64 15.12-2.64 7.36 0 13.92 1.52 19.68 4.56 5.76 3.04 10.24 8.08 13.44 15.12h1.68c2.72-3.84 5.92-7.2 9.6-10.08 3.68-3.04 7.92-5.36 12.72-6.96 4.8-1.76 10-2.64 15.6-2.64 7.52 0 14.16 1.36 19.92 4.08 5.76 2.72 10.32 7.2 13.68 13.44 3.36 6.24 5.04 14.56 5.04 24.96V174h-29.28V93.36c0-4.32-.48-7.92-1.44-10.8-.96-3.04-2.32-5.36-4.08-6.96-1.6-1.76-3.68-3.04-6.24-3.84-2.4-.8-5.04-1.2-7.92-1.2-4.64 0-8.8 1.28-12.48 3.84-3.68 2.56-6.64 6.08-8.88 10.56-2.08 4.48-3.12 9.68-3.12 15.6V174h-29.28V93.36c0-4.32-.48-7.92-1.44-10.8-.96-3.04-2.32-5.36-4.08-6.96-1.6-1.76-3.68-3.04-6.24-3.84-2.4-.8-5.04-1.2-7.92-1.2-4.64 0-8.88 1.28-12.72 3.84-3.68 2.56-6.64 6.08-8.88 10.56-2.08 4.48-3.12 9.68-3.12 15.6V174h-29.28Z"/><path fill="#2C2E3C" d="M784.399 174v-30.72h30.48V174h-30.48ZM839.312 28.32V.48h29.281v27.84h-29.281Zm0 145.68V47.76h29.281V174h-29.281ZM943.941 176.88c-13.76 0-25.28-2.32-34.56-6.96-9.28-4.8-16.24-12.08-20.88-21.84-4.64-9.76-6.96-22.16-6.96-37.2 0-15.2 2.32-27.6 6.96-37.2 4.64-9.76 11.6-16.96 20.88-21.6 9.28-4.8 20.8-7.2 34.56-7.2 13.92 0 25.44 2.4 34.56 7.2 9.28 4.64 16.24 11.84 20.88 21.6 4.639 9.6 6.959 22 6.959 37.2 0 15.04-2.32 27.44-6.959 37.2-4.64 9.76-11.6 17.04-20.88 21.84-9.12 4.64-20.64 6.96-34.56 6.96Zm0-24c7.68 0 13.84-1.44 18.48-4.32 4.8-3.04 8.24-7.52 10.32-13.44 2.24-6.08 3.36-13.6 3.36-22.56v-3.36c0-8.96-1.12-16.4-3.36-22.32-2.08-6.08-5.52-10.56-10.32-13.44-4.64-3.04-10.8-4.56-18.48-4.56s-13.92 1.52-18.72 4.56c-4.64 2.88-8.08 7.36-10.32 13.44-2.08 5.92-3.12 13.36-3.12 22.32v3.36c0 8.96 1.04 16.48 3.12 22.56 2.24 5.92 5.68 10.4 10.32 13.44 4.8 2.88 11.04 4.32 18.72 4.32Z"/><defs><linearGradient id="a" x1="104.324" x2="504.023" y1="99.68" y2="225.707" gradientUnits="userSpaceOnUse"><stop stop-color="#FF5761"/><stop offset="1" stop-color="#4765FF"/></linearGradient><linearGradient id="b" x1="104.324" x2="504.023" y1="99.68" y2="225.707" gradientUnits="userSpaceOnUse"><stop stop-color="#FF5761"/><stop offset="1" stop-color="#4765FF"/></linearGradient><linearGradient id="c" x1="104.324" x2="504.023" y1="99.68" y2="225.707" gradientUnits="userSpaceOnUse"><stop stop-color="#FF5761"/><stop offset="1" stop-color="#4765FF"/></linearGradient><linearGradient id="d" x1="104.324" x2="504.023" y1="99.68" y2="225.707" gradientUnits="userSpaceOnUse"><stop stop-color="#FF5761"/><stop offset="1" stop-color="#4765FF"/></linearGradient><linearGradient id="e" x1="104.324" x2="504.023" y1="99.68" y2="225.707" gradientUnits="userSpaceOnUse"><stop stop-color="#FF5761"/><stop offset="1" stop-color="#4765FF"/></linearGradient><linearGradient id="f" x1="104.324" x2="504.023" y1="99.68" y2="225.707" gradientUnits="userSpaceOnUse"><stop stop-color="#FF5761"/><stop offset="1" stop-color="#4765FF"/></linearGradient></defs></svg>
